#ifndef USERPREFS_HAS_SPLASH
#define icon_width 50
#define icon_height 28
static uint8_t icon_bits[] = {
 0x76,0x23,0x17,0x9b,0xba,0x39,0xff,0x21,0x55,0xaa,0xa8,0x8a,
 0x8a,0xfc,0x21,0x55,0xaa,0xa8,0x8a,0x8a,0xfc,0x21,0x73,0xaa,
 0x98,0x8a,0x89,0xfc,0x22,0x55,0x2a,0x89,0x9b,0x1a,0xfd,0x24,
 0x55,0x2a,0x8a,0x8a,0x0a,0xfe,0x24,0x55,0x2a,0x8a,0x8a,0x0a,
 0xfe,0x24,0x55,0x2a,0x8a,0x8a,0x0a,0xfe,0x23,0x55,0x92,0x89,
 0xba,0xba,0xfd,0x00,0x00,0x00,0x00,0x00,0x00,0xfc,0x00,0x00,
 0xf0,0x1f,0x00,0x00,0xfc,0x00,0x00,0x48,0x25,0x00,0x00,0xfc,
 0x00,0x00,0x48,0x25,0x00,0x00,0xfc,0x00,0x00,0x24,0x49,0x00,
 0x00,0xfc,0x00,0x00,0x24,0x49,0x00,0x00,0xfc,0x00,0x00,0x24,
 0x49,0x00,0x00,0xfc,0x00,0x00,0x22,0x89,0x00,0x00,0xfc,0x00,
 0x00,0x22,0x89,0x00,0x00,0xfc,0x00,0x00,0x22,0x89,0x00,0x00,
 0xfc,0x00,0x00,0x22,0x89,0x00,0x00,0xfc,0x00,0x00,0x24,0x49,
 0x00,0x00,0xfc,0x00,0x00,0x24,0x49,0x00,0x00,0xfc,0x00,0x00,
 0x24,0x49,0x00,0x00,0xfc,0x00,0x00,0x28,0x29,0x78,0xe9,0xfd,
 0x00,0x00,0x48,0x25,0x30,0x6b,0xfc,0x00,0x00,0x50,0x15,0x30,
 0x6f,0xfc,0x00,0x00,0x60,0x0d,0x30,0x6d,0xfc,0x00,0x00,0xc0,
 0x07,0x78,0xe9,0xfd,};
#endif